X: 32
T: No_127_Catfish_Dance_Song_(a).krn
N: Derived from No_127_Catfish_Dance_Song_(a).krn
%%abc-version 2.0
%%abcx-abcm2ps-target-version 5.9.1 (29 Sep 2008)
%%abc-creator hum2abc beta
%%abcx-conversion-date 2019/03/15 08:38:45
%%humdrum-veritas 3643751524
%%humdrum-veritas-data 2647551346
%%linebreak <none>
%%barnumbers 0
L: 1/4
M: 3/4
K: F clef=bass
[K:clef=bass][M:3/4]G,C2 | 
C3 | 
A,G,2 | 
G,C2 | 
CD2 | 
CG,2 | 
F,F,2 ||  
[M:2/4]B,G,/F,/ | 
F,2 | 
D,C, ||  
[M:3/4]C,F,2 | 
F,G,2 | 
F,C,2 | 
B,,B,,2 ||  
[M:2/4]C,D,3//C,// | 
C,2 |]  



